X: 2531
T: Ballygar Hermitage, The
R: jig
M: 6/8
K: Gdorian
|:BAG FDC|DGG G2A|BAG ABc|~d3 gdc|
BAG FDC|DGG GAB|AGF DCA,|G,3 G,2A:|
BGd BGd|~B3 dcB|AFc fcB|AFA cBA|
BGd BGd|~B3 dcB|AFA cBc|AG^F G2A|
BGd BGd|~B3 dcB|AFc fcB|AFA cBA|
BGd BGd|~B3 dcB|AGF DCA,|{C}A,G,G, G,2B||
[K: G]
|:dgg dgg|~g3 bag|c=ff cff|~c3 ag=f|
dgg dgg|~g3 bag|afd cAF|1 AGF G2B:|2 AGF G3||

